src/Pure/16/symbolic/actions/zoom-in-symbolic.svg

<svg width="16" height="16" version="1.1" xmlns="http://www.w3.org/2000/svg">
 <path d="m7 5v3h-3v1h3v3h1v-3h3v-1h-3v-3z" fill="#363636" stroke-linecap="round" stroke-linejoin="round" stroke-width="1.1851"/>
 <path d="M 7.4628906,1 A 7.5,7.5 0 0 0 0,8.5 7.5,7.5 0 0 0 7.5,16 7.5,7.5 0 0 0 15,8.5 7.5,7.5 0 0 0 7.5,1 7.5,7.5 0 0 0 7.4628906,1 Z M 7.5,2 A 6.5,6.5 0 0 1 14,8.5 6.5,6.5 0 0 1 7.5,15 6.5,6.5 0 0 1 1,8.5 6.5,6.5 0 0 1 7.5,2 Z" fill="#363636" stroke-linecap="round" stroke-linejoin="round" stroke-width="1.0016"/>
</svg>

<?xml version="1.0" encoding="UTF-8" standalone="no"?>
<svg
   width="16"
   height="16"
   version="1.1"
   id="svg2"
   sodipodi:docname="zoom-in-symbolic.svg"
   inkscape:version="1.4.2 (ebf0e940d0, 2025-05-08)"
   xmlns:inkscape="http://www.inkscape.org/namespaces/inkscape"
   xmlns:sodipodi="http://sodipodi.sourceforge.net/DTD/sodipodi-0.dtd"
   xmlns="http://www.w3.org/2000/svg"
   xmlns:svg="http://www.w3.org/2000/svg">
  <defs
     id="defs2">
    <style
       id="current-color-scheme"
       type="text/css">
        .ColorScheme-Text { color:#363636; }
     </style>
  </defs>
  <sodipodi:namedview
     id="namedview2"
     pagecolor="#ffffff"
     bordercolor="#000000"
     borderopacity="0.25"
     inkscape:showpageshadow="2"
     inkscape:pageopacity="0.0"
     inkscape:pagecheckerboard="0"
     inkscape:deskcolor="#d1d1d1"
     inkscape:zoom="49.6875"
     inkscape:cx="8"
     inkscape:cy="8"
     inkscape:window-width="1920"
     inkscape:window-height="1010"
     inkscape:window-x="0"
     inkscape:window-y="0"
     inkscape:window-maximized="1"
     inkscape:current-layer="svg2" />
  <path
     id="path1"
     style="fill:currentColor"
     class="ColorScheme-Text"
     d="M 7.4628906 1 A 7.5 7.5 0 0 0 0 8.5 A 7.5 7.5 0 0 0 7.5 16 A 7.5 7.5 0 0 0 15 8.5 A 7.5 7.5 0 0 0 7.5 1 A 7.5 7.5 0 0 0 7.4628906 1 z M 7.5 2 A 6.5 6.5 0 0 1 14 8.5 A 6.5 6.5 0 0 1 7.5 15 A 6.5 6.5 0 0 1 1 8.5 A 6.5 6.5 0 0 1 7.5 2 z M 7 5 L 7 8 L 4 8 L 4 9 L 7 9 L 7 12 L 8 12 L 8 9 L 11 9 L 11 8 L 8 8 L 8 5 L 7 5 z " />
</svg>
